trunk/WorldWind/resources/milstd2525/icons/ems/efiadf---------.svg

<?xml version="1.0" encoding="UTF-8" standalone="no"?>
<!--
Copyright (C) 2012 United States Government as represented by the Administrator of the
National Aeronautics and Space Administration.
All Rights Reserved.
-->

<!--
MIL-STD-2525 tactical symbol icon image. During icon composition this image is multiplied by the desired frame color 
(e.g. black), then drawn on top of the frame and fill.
-->

<svg
   xmlns:dc="http://purl.org/dc/elements/1.1/"
   xmlns:cc="http://creativecommons.org/ns#"
   xmlns:rdf="http://www.w3.org/1999/02/22-rdf-syntax-ns#"
   xmlns:svg="http://www.w3.org/2000/svg"
   xmlns="http://www.w3.org/2000/svg"
   xmlns:sodipodi="http://sodipodi.sourceforge.net/DTD/sodipodi-0.dtd"
   xmlns:inkscape="http://www.inkscape.org/namespaces/inkscape"
   height="400px"
   viewBox="0 0 400 400"
   width="400px"
   id="svg2"
   version="1.1"
   inkscape:version="0.48.2 r9819"
   sodipodi:docname="efiadf---------.svg">
  <metadata
     id="metadata20">
    <rdf:RDF>
      <cc:Work
         rdf:about="">
        <dc:format>image/svg+xml</dc:format>
        <dc:type
           rdf:resource="http://purl.org/dc/dcmitype/StillImage" />
      </cc:Work>
    </rdf:RDF>
  </metadata>
  <defs
     id="defs18" />
  <sodipodi:namedview
     pagecolor="#ffffff"
     bordercolor="#666666"
     borderopacity="1"
     objecttolerance="10"
     gridtolerance="10"
     guidetolerance="10"
     inkscape:pageopacity="0"
     inkscape:pageshadow="2"
     inkscape:window-width="640"
     inkscape:window-height="480"
     id="namedview16"
     showgrid="false"
     inkscape:zoom="0.59"
     inkscape:cx="200"
     inkscape:cy="200"
     inkscape:window-x="177"
     inkscape:window-y="61"
     inkscape:window-maximized="0"
     inkscape:current-layer="svg2" />
  <g
     transform="matrix(120,0,0,120,51.000036,48)"
     id="g4">
    <path
       inkscape:connector-curvature="0"
       d="m 0.527764,1.06428 c 0,0.02705 0.039587,0.09694 0.039587,0.14515 l 0,0.03958 C 0.513083,1.2445 0.4398,1.13952 0.4398,1.06868 0.368276,1.12108 0.424748,1.30717 0.457457,1.3633 0.489158,1.41769 0.494989,1.42646 0.547965,1.46192 0.557119,1.46805 0.67567,1.52611 0.677308,1.52611 c 0.02811,0 0.084969,-0.05344 0.109898,-0.06604 C 0.839304,1.43372 0.847726,1.42494 0.873832,1.37076 0.882572,1.35262 0.907454,1.25821 0.912352,1.23335 0.920848,1.19022 0.902615,1.11308 0.901627,1.06868 l -0.008799,0 C 0.886801,1.14112 0.833308,1.2432 0.769674,1.24462 0.76817,1.22654 0.765276,1.23479 0.765276,1.21823 0.765276,1.1762 0.796532,1.11654 0.803398,1.07125 0.806997,1.04751 0.747615,0.963399 0.730091,0.958721 0.751339,1.00301 0.707946,1.08533 0.67291,1.10387 0.655024,1.09189 0.633324,1.05901 0.633324,1.0291 l 0,-0.0088 c 0,-0.076594 0.056858,-0.096114 0.035189,-0.18913 C 0.657276,0.839403 0.651934,0.873411 0.638556,0.89358 0.624808,0.914308 0.616855,0.9293 0.601808,0.949194 0.585599,0.970615 0.527765,1.03801 0.527765,1.06428 z"
       style="fill:#000000;stroke:#000000;stroke-width:0.05;stroke-miterlimit:4;stroke-opacity:1;stroke-dasharray:0.1, 0.05;stroke-dashoffset:0"
       id="path6" />
    <path
       inkscape:connector-curvature="0"
       d="m 1.70652,1.06428 0,0.0044 c 0,0.04796 0.05041,0.11499 0.03519,0.18033 C 1.71362,1.24667 1.66855,1.20311 1.65548,1.1813 1.64473,1.16336 1.63725,1.15339 1.63003,1.13197 1.62473,1.11626 1.61793,1.07656 1.61415,1.06868 1.58929,1.0869 1.57897,1.15123 1.57897,1.19623 c 0,0.06724 0.05506,0.17517 0.08346,0.21563 0.01966,0.028 0.05207,0.04787 0.08513,0.06441 0.01257,0.00628 0.10114,0.04984 0.10411,0.04984 0.01807,0 0.15866,-0.0925 0.17048,-0.10662 0.01848,-0.02208 0.07163,-0.1674 0.06868,-0.21024 l -0.01485,-0.14057 -0.0088,0 C 2.06556,1.14145 2.00794,1.2393 1.94403,1.24461 1.94413,1.24436 1.95011,1.17232 1.95459,1.15402 1.96144,1.12608 1.97482,1.09403 1.97482,1.06428 l 0,-0.0044 c 0,-0.0198 -0.05568,-0.095718 -0.07037,-0.105556 0,0.076866 -0.00419,0.124116 -0.05719,0.149546 C 1.83315,1.09159 1.80768,1.06774 1.80768,1.04229 l 0,-0.03079 c 0,-0.047913 0.04399,-0.097822 0.04399,-0.136349 L 1.85264,0.870607 1.84726,0.83117 C 1.8264,0.836741 1.82489,0.87295 1.81509,0.891351 1.80533,0.909662 1.79051,0.930627 1.77809,0.946722 1.75956,0.970729 1.70652,1.03195 1.70652,1.06428 z"
       style="fill:#000000;stroke:#000000;stroke-width:0.05;stroke-miterlimit:4;stroke-opacity:1;stroke-dasharray:0.1, 0.05;stroke-dashoffset:0"
       id="path8" />
    <path
       inkscape:connector-curvature="0"
       d="m 1.04237,1.73723 c 0,0.1088 0.04297,0.14696 0.11304,0.18327 L 1.21391,1.86478 C 1.19056,1.85855 1.14845,1.81781 1.13549,1.79806 1.11568,1.76789 1.1132,1.72416 1.10395,1.68445 1.09436,1.68701 1.04237,1.72944 1.04237,1.73723 z"
       style="fill:#ffffff"
       id="path10" />
    <path
       inkscape:connector-curvature="0"
       d="m 1.04237,1.73723 c 0,-0.0078 0.05199,-0.05022 0.06158,-0.05278 C 1.1132,1.72416 1.11568,1.76789 1.13549,1.79806 1.14845,1.8178 1.19056,1.85855 1.21391,1.86478 L 1.15541,1.9205 C 1.08534,1.88419 1.04237,1.84603 1.04237,1.73723 z m 0.20672,0.33428 0.0132,0 c 0.20182,0 0.29469,-0.23587 0.29469,-0.44424 l 0,-0.03518 C 1.55698,1.43324 1.42624,1.28935 1.37086,1.15364 1.31546,1.01786 1.32361,0.751077 1.2403,0.655238 1.21416,0.96925 1.11419,1.19896 0.992476,1.41904 0.926614,1.53813 0.932283,1.69993 0.975771,1.83902 1.01341,1.95937 1.09359,2.07151 1.24909,2.07151 z"
       style="fill:#ffffff"
       id="path12" />
    <path
       inkscape:connector-curvature="0"
       d="M 1.24909,2.07151 C 1.09359,2.07151 1.0134,1.95937 0.975767,1.83902 0.932279,1.69993 0.92661,1.53814 0.992472,1.41904 1.11418,1.19896 1.21416,0.969255 1.24029,0.655243 1.3236,0.751082 1.31546,1.01787 1.37086,1.15364 1.42624,1.28935 1.55698,1.43324 1.55698,1.59209 l 0,0.03518 c 0,0.20837 -0.09287,0.44424 -0.29469,0.44424 z m -0.0132,0.03518 0.03959,0 c 0.21088,0 0.32108,-0.24296 0.32108,-0.45742 l 0,-0.06158 C 1.59656,1.39104 1.43698,1.25908 1.39065,1.08546 1.34104,0.899561 1.35511,0.644577 1.20071,0.562876 1.20071,0.742549 1.17278,0.89562 1.12532,1.02848 1.10089,1.09686 1.07641,1.15814 1.04941,1.22527 1.0263,1.28272 0.984866,1.34649 0.955886,1.40444 0.927602,1.46098 0.894394,1.53298 0.901539,1.62286 0.90887,1.7151 0.913248,1.78192 0.938665,1.85853 0.979382,1.98126 1.07713,2.10669 1.23589,2.10669 z"
       style="fill:#000000;stroke:#000000;stroke-width:0.05;stroke-miterlimit:4;stroke-opacity:1;stroke-dasharray:0.1, 0.05;stroke-dashoffset:0"
       id="path14" />
  </g>
</svg>

<?xml version="1.0"?>
<!--
Copyright (C) 2012 United States Government as represented by the Administrator of the
National Aeronautics and Space Administration.
All Rights Reserved.
-->

<!DOCTYPE svg PUBLIC "-//W3C//DTD SVG 1.1//EN" "http://www.w3.org/Graphics/SVG/1.1/DTD/svg11.dtd" >
<!--
MIL-STD-2525 tactical symbol icon image. During icon composition this image is multiplied by the desired frame color 
(e.g. black), then drawn on top of the frame and fill.
-->
<svg xmlns:xlink="http://www.w3.org/1999/xlink" height="400px" viewBox="0 0 400 400" width="400px"><g transform="scale(120) translate(0.391667 0.4) translate(0.0333333 0)"><path d="M0.527764 1.06428 C0.527764 1.09133 0.567351 1.16122 0.567351 1.20943 L0.567351 1.24901     C0.513083 1.2445 0.4398 1.13952 0.4398 1.06868 C0.368276 1.12108 0.424748     1.30717 0.457457 1.3633 C0.489158 1.41769 0.494989 1.42646 0.547965 1.46192     C0.557119 1.46805 0.67567 1.52611 0.677308 1.52611 C0.705418 1.52611 0.762277     1.47267 0.787206 1.46007 C0.839304 1.43372 0.847726 1.42494 0.873832     1.37076 C0.882572 1.35262 0.907454 1.25821 0.912352 1.23335 C0.920848 1.19022     0.902615 1.11308 0.901627 1.06868 L0.892828 1.06868 C0.886801 1.14112 0.833308     1.2432 0.769674 1.24462 C0.76817 1.22654 0.765276 1.23479 0.765276 1.21823     C0.765276 1.1762 0.796532 1.11654 0.803398 1.07125 C0.806997 1.04751 0.747615     0.963399 0.730091 0.958721 C0.751339 1.00301 0.707946 1.08533 0.67291     1.10387 C0.655024 1.09189 0.633324 1.05901 0.633324 1.0291 L0.633324 1.0203     C0.633324 0.943706 0.690182 0.924186 0.668513 0.83117 C0.657276 0.839403 0.651934     0.873411 0.638556 0.89358 C0.624808 0.914308 0.616855 0.9293 0.601808     0.949194 C0.585599 0.970615 0.527765 1.03801 0.527765 1.06428 z" style="fill:rgb(0,0,0)"/><path d="M1.70652 1.06428 L1.70652 1.06868 C1.70652 1.11664 1.75693 1.18367 1.74171 1.24901     C1.71362 1.24667 1.66855 1.20311 1.65548 1.1813 C1.64473 1.16336 1.63725 1.15339     1.63003 1.13197 C1.62473 1.11626 1.61793 1.07656 1.61415 1.06868 C1.58929     1.0869 1.57897 1.15123 1.57897 1.19623 C1.57897 1.26347 1.63403 1.3714     1.66243 1.41186 C1.68209 1.43986 1.7145 1.45973 1.74756 1.47627 C1.76013 1.48255     1.8487 1.52611 1.85167 1.52611 C1.86974 1.52611 2.01033 1.43361 2.02215     1.41949 C2.04063 1.39741 2.09378 1.25209 2.09083 1.20925 L2.07598 1.06868 L2.06718     1.06868 C2.06556 1.14145 2.00794 1.2393 1.94403 1.24461 C1.94413 1.24436     1.95011 1.17232 1.95459 1.15402 C1.96144 1.12608 1.97482 1.09403 1.97482     1.06428 L1.97482 1.05988 C1.97482 1.04008 1.91914 0.964162 1.90445 0.954324     C1.90445 1.03119 1.90026 1.07844 1.84726 1.10387 C1.83315 1.09159 1.80768     1.06774 1.80768 1.04229 L1.80768 1.0115 C1.80768 0.963587 1.85167 0.913678 1.85167     0.875151 L1.85264 0.870607 L1.84726 0.83117 C1.8264 0.836741 1.82489     0.87295 1.81509 0.891351 C1.80533 0.909662 1.79051 0.930627 1.77809 0.946722     C1.75956 0.970729 1.70652 1.03195 1.70652 1.06428 z" style="fill:rgb(0,0,0)"/><path d="M1.04237 1.73723 C1.04237 1.84603 1.08534 1.88419 1.15541 1.9205 L1.21391 1.86478     C1.19056 1.85855 1.14845 1.81781 1.13549 1.79806 C1.11568 1.76789 1.1132 1.72416     1.10395 1.68445 C1.09436 1.68701 1.04237 1.72944 1.04237 1.73723 z" style="fill:rgb(255,255,255)"/><path d="M1.04237 1.73723 C1.04237 1.72943 1.09436 1.68701 1.10395 1.68445 C1.1132 1.72416     1.11568 1.76789 1.13549 1.79806 C1.14845 1.8178 1.19056 1.85855 1.21391 1.86478     L1.15541 1.9205 C1.08534 1.88419 1.04237 1.84603 1.04237 1.73723 zM1.24909     2.07151 L1.26229 2.07151 C1.46411 2.07151 1.55698 1.83564 1.55698 1.62727     L1.55698 1.59209 C1.55698 1.43324 1.42624 1.28935 1.37086 1.15364 C1.31546     1.01786 1.32361 0.751077 1.2403 0.655238 C1.21416 0.96925 1.11419 1.19896 0.992476     1.41904 C0.926614 1.53813 0.932283 1.69993 0.975771 1.83902 C1.01341     1.95937 1.09359 2.07151 1.24909 2.07151 z" style="fill:rgb(255,255,255)"/><path d="M1.24909 2.07151 C1.09359 2.07151 1.0134 1.95937 0.975767 1.83902 C0.932279 1.69993     0.92661 1.53814 0.992472 1.41904 C1.11418 1.19896 1.21416 0.969255 1.24029     0.655243 C1.3236 0.751082 1.31546 1.01787 1.37086 1.15364 C1.42624 1.28935     1.55698 1.43324 1.55698 1.59209 L1.55698 1.62727 C1.55698 1.83564 1.46411 2.07151     1.26229 2.07151 zM1.23589 2.10669 L1.27548 2.10669 C1.48636 2.10669 1.59656     1.86373 1.59656 1.64927 L1.59656 1.58769 C1.59656 1.39104 1.43698 1.25908     1.39065 1.08546 C1.34104 0.899561 1.35511 0.644577 1.20071 0.562876 C1.20071     0.742549 1.17278 0.89562 1.12532 1.02848 C1.10089 1.09686 1.07641 1.15814     1.04941 1.22527 C1.0263 1.28272 0.984866 1.34649 0.955886 1.40444 C0.927602     1.46098 0.894394 1.53298 0.901539 1.62286 C0.90887 1.7151 0.913248 1.78192     0.938665 1.85853 C0.979382 1.98126 1.07713 2.10669 1.23589 2.10669 z" style="fill:rgb(0,0,0)"/></g></svg>
